X:1
T:Schleinige Taenze in D, nr.  23
C:traditionell
R:Schleuniger
A:Hallstatt, Salzkammergut
B:Corpus Musicae Popularis Austriacae (COMPA), 5. Band: J.M.Schmalnauer "Tanz Musik", Verlag Boehlau, Wien 1996
S:manuscript (2 stimmbuecher) des Johann Michael Schmalnauer
N:ca.1800
N:in der quelle in D, zweistimmig
M:3/4
L:1/8
K:D
ag |\
fad'Ad'A | d'c'a4 | Aac'Ac'A | c'd'a4 |\
fad'Ad'A | d'c'a4 | Aac'Ac'A |1 c'd'd4 :|\
                             [2 c'd'd4 ||
|:\
fad'Ad'A | d'2c'Ac'A | Aac'Ac'A | c'2d'Ad'A |\
fad'Ad'A | d'2c'Ac'A | Aac'Ac'A | c'd'd4 :|

